icons/linear-ele-other-medal.svg

<svg xmlns="http://www.w3.org/2000/svg" width="32px" height="32px" viewBox="0 0 32 32" version="1.1">
    <title>linear-ele-other-medal</title>
    <g id="linear-ele-other-medal" stroke-width="1" fill-rule="evenodd">
        <path d="M25,2 C25.6239041,2 26.0954773,2.56504502 25.9838699,3.17888544 L24.0136549,14.0172426 L24.162136,14.221098 C25.3196169,15.8529631 26,17.8470256 26,20 C26,25.4292399 21.6733292,29.8479317 16.2799048,29.9961582 L16,30 C10.4771525,30 6,25.5228475 6,20 C6,17.7560798 6.73907856,15.6847806 7.9870853,14.0162529 L6.01613009,3.17888544 C5.90452274,2.56504502 6.37609595,2 7,2 L25,2 Z M16,12 C11.581722,12 8,15.581722 8,20 C8,24.418278 11.581722,28 16,28 C20.418278,28 24,24.418278 24,20 C24,15.581722 20.418278,12 16,12 Z M23.802,4 L19.9997117,4 L20.0004128,10.8322677 L20.1940206,10.9193417 C20.9529157,11.2704336 21.6603596,11.7138596 22.3019375,12.2352051 L23.802,4 Z M11.9997117,4 L8.197,4 L9.6955926,12.2372127 C10.3920611,11.6708969 11.1662109,11.1964303 11.9995872,10.8322677 L11.9997117,4 Z M17.9997117,4 L13.9997117,4 L14.0000191,10.2000324 C14.6462331,10.0688592 15.3150751,10 16,10 C16.6552531,10 17.2957865,10.0630223 17.9158696,10.1833359 L18.000299,10.2000969 L17.9997117,4 Z" id="&#24418;&#29366;" fill-rule="nonzero" />
    </g>
</svg>

<svg xmlns="http://www.w3.org/2000/svg" viewBox="0 0 32 32"><path fill="currentColor" d="M25 2a1 1 0 0 1 .984 1.179l-1.97 10.838.148.204A9.954 9.954 0 0 1 26 20c0 5.43-4.327 9.848-9.72 9.996L16 30c-5.523 0-10-4.477-10-10 0-2.244.74-4.315 1.987-5.984L6.017 3.18A1 1 0 0 1 7 2zm-9 10a8 8 0 1 0 0 16 8 8 0 0 0 0-16m7.802-8H20v6.832l.194.087c.759.351 1.466.795 2.108 1.316zM12 4H8.197l1.499 8.237A10 10 0 0 1 12 10.832zm6 0h-4v6.2a10.046 10.046 0 0 1 3.916-.017L18 10.2z"/></svg>
